static/img/pages/index/integrations/pandas.svg

<svg width="63" height="99" viewBox="0 0 63 99" fill="none" xmlns="http://www.w3.org/2000/svg">
<path d="M28.9856 5.84766H18.174V28.2966H28.9856V5.84766Z" fill="white"/>
<path d="M28.9856 51.9619H18.174V74.4108H28.9856V51.9619Z" fill="white"/>
<path d="M28.9856 34.8491H18.174V45.4408H28.9856V34.8491Z" fill="white"/>
<path d="M11.6216 24.3066H0.809998V98.9284H11.6216V24.3066Z" fill="white"/>
<path d="M46.0938 70.2861H35.2822V92.735H46.0938V70.2861Z" fill="white"/>
<path d="M45.995 24.3337H35.1835V46.7826H45.995V24.3337Z" fill="white"/>
<path d="M45.995 53.3352H35.1835V63.9269H45.995V53.3352Z" fill="white"/>
<path d="M63 0H52.1885V74.6217H63V0Z" fill="white"/>
</svg>

<svg width="63" height="99" fill="none" xmlns="http://www.w3.org/2000/svg"><path d="M28.986 5.848H18.174v22.449h10.812V5.847zm0 46.114H18.174V74.41h10.812V51.96zm0-17.112H18.174v10.59h10.812V34.85zM11.622 24.307H.81v74.621h10.812V24.307zm34.472 45.979H35.282v22.449h10.812V70.286zm-.099-45.952H35.184v22.449h10.811v-22.45zm0 29.001H35.184v10.592h10.811V53.335zM63 0H52.188v74.622H63V0z" fill="#fff"/></svg>
